school977/img/no.svg

<svg width="30" height="30" viewBox="0 0 30 30" fill="none" xmlns="http://www.w3.org/2000/svg">
<path d="M19.9501 15.0009L29.2308 5.72016C30.2564 4.69461 30.2564 3.03203 29.2308 2.00823L27.9935 0.770913C26.968 -0.254638 25.3054 -0.254638 24.2816 0.770913L15.0009 10.0516L5.72016 0.769163C4.69461 -0.256388 3.03203 -0.256388 2.00823 0.769163L0.769163 2.00647C-0.256388 3.03203 -0.256388 4.69461 0.769163 5.71841L10.0516 15.0009L0.770913 24.2816C-0.254638 25.3071 -0.254638 26.9697 0.770913 27.9935L2.00823 29.2308C3.03378 30.2564 4.69636 30.2564 5.72016 29.2308L15.0009 19.9501L24.2816 29.2308C25.3071 30.2564 26.9697 30.2564 27.9935 29.2308L29.2308 27.9935C30.2564 26.968 30.2564 25.3054 29.2308 24.2816L19.9501 15.0009Z" fill="#4CA051"/>
</svg>

<svg width="30" height="30" fill="none" xmlns="http://www.w3.org/2000/svg"><path d="M19.95 15l9.28-9.28a2.624 2.624 0 0 0 0-3.712L27.995.771a2.624 2.624 0 0 0-3.712 0L15 10.05 5.72.77a2.624 2.624 0 0 0-3.713 0L.77 2.006a2.624 2.624 0 0 0 0 3.712l9.283 9.283L.77 24.28a2.624 2.624 0 0 0 0 3.713l1.237 1.237a2.624 2.624 0 0 0 3.712 0L15 19.95l9.282 9.28a2.624 2.624 0 0 0 3.712 0l1.237-1.238a2.624 2.624 0 0 0 0-3.711L19.95 15z" fill="#4CA051"/></svg>
